dist/svgs/core-ui-icons/free/cil-hd.svg

<svg xmlns="http://www.w3.org/2000/svg" viewBox="0 0 512 512"><path d="M364 136h-92v240h92a52.059 52.059 0 0052-52V188a52.059 52.059 0 00-52-52zm20 188a20.023 20.023 0 01-20 20h-60V168h60a20.023 20.023 0 0120 20zm-176-84h-80V136H96v240h32V272h80v104h32V136h-32v104z"/><path d="M464 16H48a32.036 32.036 0 00-32 32v416a32.036 32.036 0 0032 32h416a32.036 32.036 0 0032-32V48a32.036 32.036 0 00-32-32zm0 448H48V48h416l.02 416z"/></svg>

<svg xmlns="http://www.w3.org/2000/svg" viewBox="0 0 512 512">
  <path fill="var(--ci-primary-color, currentColor)" d="M364,136H272V376h92a52.059,52.059,0,0,0,52-52V188A52.059,52.059,0,0,0,364,136Zm20,188a20.023,20.023,0,0,1-20,20H304V168h60a20.023,20.023,0,0,1,20,20Z" class="ci-primary"/>
  <polygon fill="var(--ci-primary-color, currentColor)" points="208 240 128 240 128 136 96 136 96 376 128 376 128 272 208 272 208 376 240 376 240 136 208 136 208 240" class="ci-primary"/>
  <path fill="var(--ci-primary-color, currentColor)" d="M464,16H48A32.036,32.036,0,0,0,16,48V464a32.036,32.036,0,0,0,32,32H464a32.036,32.036,0,0,0,32-32V48A32.036,32.036,0,0,0,464,16Zm0,448H48V48H464l.02,416Z" class="ci-primary"/>
</svg>
